fs/home_checkmark_16_regular.svg

<svg viewBox="0 0 16 16" fill="none" xmlns="http://www.w3.org/2000/svg" height="1em" width="1em">
  <path d="M10.8536 6.86009C11.0488 6.665 11.0488 6.34871 10.8536 6.15363C10.6583 5.95854 10.3417 5.95854 10.1464 6.15363L7 9.29719L5.85355 8.1518C5.65829 7.95671 5.34171 7.95671 5.14645 8.1518C4.95118 8.34688 4.95118 8.66317 5.14645 8.85825L6.64645 10.3569C6.84171 10.552 7.15829 10.552 7.35355 10.3569L10.8536 6.86009ZM8.68701 1.2731C8.30151 0.908965 7.69849 0.908966 7.31299 1.2731L2.46948 5.84823C2.1698 6.13131 2 6.52517 2 6.9372V12.5014C2 13.329 2.67157 14 3.5 14H12.5C13.3284 14 14 13.329 14 12.5014V6.9372C14 6.52517 13.8302 6.1313 13.5305 5.84823L8.68701 1.2731ZM8 1.99908L12.8435 6.57421C12.9434 6.66857 13 6.79986 13 6.9372V12.5014C13 12.7773 12.7761 13.0009 12.5 13.0009H3.5C3.22386 13.0009 3 12.7773 3 12.5014V6.9372C3 6.79986 3.0566 6.66857 3.15649 6.57421L8 1.99908Z" fill="#212121"/>
</svg>

<svg viewBox="0 0 16 16" fill="none" xmlns="http://www.w3.org/2000/svg" height="1em" width="1em">
  <path d="M10.854 6.86a.5.5 0 1 0-.708-.706L7 9.297 5.854 8.152a.5.5 0 0 0-.708.706l1.5 1.499a.5.5 0 0 0 .708 0l3.5-3.497ZM8.687 1.273a1 1 0 0 0-1.374 0L2.469 5.848c-.3.283-.469.677-.469 1.09V12.5A1.5 1.5 0 0 0 3.5 14h9a1.5 1.5 0 0 0 1.5-1.499V6.937c0-.412-.17-.806-.47-1.089L8.688 1.273ZM8 2l4.844 4.575a.5.5 0 0 1 .156.363v5.564a.5.5 0 0 1-.5.5h-9a.5.5 0 0 1-.5-.5V6.937a.5.5 0 0 1 .156-.363L8 2Z" fill="#212121"/>
</svg>
